papirus/48x48/apps/alexandra.svg

<svg height="48" viewBox="0 0 48 48" width="48" xmlns="http://www.w3.org/2000/svg"><path d="m14 4c-5.5228 0-10 4.4772-10 10 .0048 2.7597 1.1499 5.3947 3.1641 7.2812-.10341.27172-.16406.57057-.16406.88867v5.8301c-1.1046 0-2 .89543-2 2 0 1.10457.89543 2 2 2v5.8301c0 1.203.8217 2.17 1.8418 2.17h6.6738l-2.2988 2.4844c-.623.674.156 1.516 1.402 1.516h7.381 7.381c.913 0 1.647-.471 1.619-1.041-.008-.167-.083-.33-.217-.475l-2.299-2.484h6.674c1.02 0 1.842-.967 1.842-2.17v-5.3574l1.4941.92188 3.9902 2.4609c.674.416 1.516-.104 1.516-.935v-4.92-4.922c0-.608-.472-1.096-1.041-1.078-.16695.0055-.33002.0552-.47461.14453l-3.99 2.46-1.494.92v-5.355c0-.316-.06-.613-.162-.883 2.015-1.888 3.159-4.526 3.162-7.287 0-5.5228-4.477-10-10-10-3.15.0048-6.114 1.4934-7.998 4.0176-1.885-2.5253-4.851-4.0141-8.002-4.0176z" fill="#11ab66"/><path d="m14 10c-2.7496 0-5 2.2504-5 5 0 2.7496 2.2504 5 5 5 2.7496 0 5-2.2504 5-5 0-2.7496-2.2504-5-5-5zm16 0c-2.7496 0-5 2.2504-5 5 0 2.7496 2.2504 5 5 5 2.7496 0 5-2.2504 5-5 0-2.7496-2.2504-5-5-5zm-16 2c1.6687 0 3 1.3313 3 3 0 1.6687-1.3313 3-3 3-1.6687 0-3-1.3313-3-3 0-1.6687 1.3313-3 3-3zm16 0c1.6687 0 3 1.3313 3 3 0 1.6687-1.3313 3-3 3-1.6687 0-3-1.3313-3-3 0-1.6687 1.3313-3 3-3z" opacity=".2"/><path d="m14 9c-2.7496 0-5 2.2504-5 5 0 2.7496 2.2504 5 5 5 2.7496 0 5-2.2504 5-5 0-2.7496-2.2504-5-5-5zm16 0c-2.7496 0-5 2.2504-5 5 0 2.7496 2.2504 5 5 5 2.7496 0 5-2.2504 5-5 0-2.7496-2.2504-5-5-5zm-16 2c1.6687 0 3 1.3313 3 3 0 1.6687-1.3313 3-3 3-1.6687 0-3-1.3313-3-3 0-1.6687 1.3313-3 3-3zm16 0c1.6687 0 3 1.3313 3 3 0 1.6687-1.3313 3-3 3-1.6687 0-3-1.3313-3-3 0-1.6687 1.3313-3 3-3z" fill="#fff"/><path d="m14 4c-5.5228 0-10 4.4772-10 10 .0002817.161983.0173066.321424.0253906.482422.270756-5.2809141 4.6263682-9.482422 9.9746094-9.482422 3.151.0035 6.116953 1.4922781 8.001953 4.0175781 1.884-2.5242 4.848047-4.0127781 7.998047-4.0175781 5.351721 0 9.708736 4.2066999 9.974609 9.492188.008275-.164022.025212-.327154.025391-.492188 0-5.5228-4.477-10-10-10-3.15.0048-6.114047 1.4933781-7.998047 4.0175781-1.885-2.5253-4.850953-4.0140781-8.001953-4.0175781zm-6.9941406 18.115234c-.0004242.018758-.0058594.035793-.0058594.054688v1c0-.3181.0606525-.616952.1640625-.888672-.0560306-.052478-.1035234-.112392-.1582031-.166016zm29.9902346.007813c-.054372.053331-.102494.111865-.158203.164062.102.27.162109.566813.162109.882813v-1c0-.016121-.003596-.030854-.003906-.046875zm5.96289 1.876953c-.16695.0055-.330019.055201-.474609.144531l-3.990234 2.460938-1.494141.919922v1l1.494141-.919922 3.990234-2.460938c.14459-.08933.307659-.139031.474609-.144531.569-.018 1.041016.470125 1.041016 1.078125v-1c0-.608-.472016-1.096125-1.041016-1.078125zm-35.958984 4c-1.1046 0-2 .89543-2 2 0 .173784.0286555.339243.0703125.5.2226391-.861703.9983888-1.5 1.9296875-1.5zm7.589844 13l-1.373047 1.484375c-.309572.334914-.271965.711902-.003906 1.005859.001753-.001924.00213-.003938.003906-.005859l2.298828-2.484375zm13.894531 0l2.298828 2.484375c.000657.000711.001299.001241.001953.001953.141457-.155415.224284-.335163.214844-.527344-.008-.167-.082797-.329609-.216797-.474609l-1.373047-1.484375z" fill="#fff" opacity=".2"/><path d="m4.0253906 13.482422c-.0088706.172686-.0253906.342686-.0253906.517578.0046665 2.682931 1.0949018 5.241197 3.0058594 7.115234.0066915-.297116.0609098-.578336.1582031-.833984-1.8959748-1.77577-3.0090285-4.216914-3.1386719-6.798828zm35.9492184.009766c-.130387 2.579688-1.24239 5.019987-3.136718 6.794921.096796.256226.152438.537918.158203.835938 1.91226-1.87566 3.000989-4.438381 3.003906-7.123047 0-.1716-.016849-.338334-.025391-.507812zm-34.9042965 16.007812c-.0416558.160757-.0703125.326216-.0703125.5 0 1.10457.89543 2 2 2v-1c-.9306163 0-1.70641-.639223-1.9296875-1.5zm31.9296875 1.972656v1l1.494141.921875 3.990234 2.460938c.674.416 1.515625-.104547 1.515625-.935547v-1c0 .831-.841625 1.351547-1.515625.935547l-3.990234-2.460938zm-30 5.357422v1c0 1.203.8216969 2.169922 1.8417969 2.169922h5.7480471l.925781-1h-6.6738281c-1.0201 0-1.8417969-.966922-1.8417969-2.169922zm30 0c0 1.203-.821797 2.169922-1.841797 2.169922h-6.673828l.925781 1h5.748047c1.02 0 1.841797-.966922 1.841797-2.169922zm-6.216797 5.65625c-.278403.30484-.798013.513672-1.402344.513672h-7.380859-7.380859c-.625987 0-1.134572-.212794-1.40625-.509766-.613261.673026.163802 1.509766 1.40625 1.509766h7.380859 7.380859c.913 0 1.647141-.471016 1.619141-1.041016-.007977-.166513-.08353-.327974-.216797-.472656z" opacity=".3"/></svg>

<?xml version="1.0" encoding="UTF-8" standalone="no"?>
<!-- Created with Inkscape (http://www.inkscape.org/) -->

<svg
   xmlns:dc="http://purl.org/dc/elements/1.1/"
   xmlns:cc="http://creativecommons.org/ns#"
   xmlns:rdf="http://www.w3.org/1999/02/22-rdf-syntax-ns#"
   xmlns:svg="http://www.w3.org/2000/svg"
   xmlns="http://www.w3.org/2000/svg"
   xmlns:sodipodi="http://sodipodi.sourceforge.net/DTD/sodipodi-0.dtd"
   xmlns:inkscape="http://www.inkscape.org/namespaces/inkscape"
   id="svg2"
   height="48"
   viewBox="0 0 48 48"
   width="48"
   version="1.1"
   inkscape:version="0.91 r13725"
   sodipodi:docname="alexandra.svg">
  <defs
     id="defs9" />
  <sodipodi:namedview
     pagecolor="#ffffff"
     bordercolor="#666666"
     borderopacity="1"
     objecttolerance="10"
     gridtolerance="10"
     guidetolerance="10"
     inkscape:pageopacity="0"
     inkscape:pageshadow="2"
     inkscape:window-width="1600"
     inkscape:window-height="849"
     id="namedview7"
     showgrid="false"
     inkscape:zoom="5.71"
     inkscape:cx="19.736676"
     inkscape:cy="24"
     inkscape:window-x="0"
     inkscape:window-y="0"
     inkscape:window-maximized="1"
     inkscape:current-layer="svg2" />
  <metadata
     id="metadata8">
    <rdf:RDF>
      <cc:Work
         rdf:about="">
        <dc:format>image/svg+xml</dc:format>
        <dc:type
           rdf:resource="http://purl.org/dc/dcmitype/StillImage" />
        <dc:title></dc:title>
      </cc:Work>
    </rdf:RDF>
  </metadata>
  <path
     d="M 14,4 C 8.4772,4 4,8.4772 4,14 c 0.0048,2.7597 1.1499,5.3947 3.1641,7.2812 -0.10341,0.27172 -0.16406,0.57057 -0.16406,0.88867 l 0,5.8301 c -1.1046,0 -2,0.89543 -2,2 0,1.10457 0.89543,2 2,2 l 0,5.8301 c 0,1.203 0.8217,2.17 1.8418,2.17 l 6.6738,0 -2.2988,2.4844 c -0.623,0.674 0.156,1.516 1.402,1.516 l 7.381,0 7.381,0 c 0.913,0 1.647,-0.471 1.619,-1.041 -0.008,-0.167 -0.083,-0.33 -0.217,-0.475 l -2.299,-2.484 6.674,0 c 1.02,0 1.842,-0.967 1.842,-2.17 l 0,-5.3574 1.4941,0.92188 3.9902,2.4609 c 0.674,0.416 1.516,-0.104 1.516,-0.935 l 0,-4.92 0,-4.922 c 0,-0.608 -0.472,-1.096 -1.041,-1.078 -0.16695,0.0055 -0.33002,0.0552 -0.47461,0.14453 l -3.99,2.46 -1.494,0.92 0,-5.355 c 0,-0.316 -0.06,-0.613 -0.162,-0.883 2.015,-1.888 3.159,-4.526 3.162,-7.287 0,-5.5228 -4.477,-10 -10,-10 -3.15,0.0048 -6.114,1.4934 -7.998,4.0176 -1.885,-2.5253 -4.851,-4.0141 -8.002,-4.0176 z"
     id="path4155"
     style="fill:#11ab66;fill-opacity:1" />
  <path
     style="opacity:0.2;fill:#000000;fill-opacity:1"
     id="path4160"
     d="m 14,10 c -2.7496,0 -5,2.2504 -5,5 0,2.7496 2.2504,5 5,5 2.7496,0 5,-2.2504 5,-5 0,-2.7496 -2.2504,-5 -5,-5 z m 16,0 c -2.7496,0 -5,2.2504 -5,5 0,2.7496 2.2504,5 5,5 2.7496,0 5,-2.2504 5,-5 0,-2.7496 -2.2504,-5 -5,-5 z m -16,2 c 1.6687,0 3,1.3313 3,3 0,1.6687 -1.3313,3 -3,3 -1.6687,0 -3,-1.3313 -3,-3 0,-1.6687 1.3313,-3 3,-3 z m 16,0 c 1.6687,0 3,1.3313 3,3 0,1.6687 -1.3313,3 -3,3 -1.6687,0 -3,-1.3313 -3,-3 0,-1.6687 1.3313,-3 3,-3 z"
     inkscape:connector-curvature="0" />
  <path
     d="M 14 9 C 11.2504 9 9 11.2504 9 14 C 9 16.7496 11.2504 19 14 19 C 16.7496 19 19 16.7496 19 14 C 19 11.2504 16.7496 9 14 9 z M 30 9 C 27.2504 9 25 11.2504 25 14 C 25 16.7496 27.2504 19 30 19 C 32.7496 19 35 16.7496 35 14 C 35 11.2504 32.7496 9 30 9 z M 14 11 C 15.6687 11 17 12.3313 17 14 C 17 15.6687 15.6687 17 14 17 C 12.3313 17 11 15.6687 11 14 C 11 12.3313 12.3313 11 14 11 z M 30 11 C 31.6687 11 33 12.3313 33 14 C 33 15.6687 31.6687 17 30 17 C 28.3313 17 27 15.6687 27 14 C 27 12.3313 28.3313 11 30 11 z "
     id="path4153"
     style="fill:#ffffff;fill-opacity:1" />
  <path
     style="fill:#ffffff;fill-opacity:1;opacity:0.2"
     d="M 14 4 C 8.4772 4 4 8.4772 4 14 C 4.0002817 14.161983 4.0173066 14.321424 4.0253906 14.482422 C 4.2961466 9.2015079 8.6517588 5 14 5 C 17.151 5.0035 20.116953 6.4922781 22.001953 9.0175781 C 23.885953 6.4933781 26.85 5.0048 30 5 C 35.351721 5 39.708736 9.2066999 39.974609 14.492188 C 39.982884 14.328166 39.999821 14.165034 40 14 C 40 8.4772 35.523 4 30 4 C 26.85 4.0048 23.885953 5.4933781 22.001953 8.0175781 C 20.116953 5.4922781 17.151 4.0035 14 4 z M 7.0058594 22.115234 C 7.0054352 22.133992 7 22.151027 7 22.169922 L 7 23.169922 C 7 22.851822 7.0606525 22.55297 7.1640625 22.28125 C 7.1080319 22.228772 7.0605391 22.168858 7.0058594 22.115234 z M 36.996094 22.123047 C 36.941722 22.176378 36.8936 22.234912 36.837891 22.287109 C 36.939891 22.557109 37 22.853922 37 23.169922 L 37 22.169922 C 37 22.153801 36.996404 22.139068 36.996094 22.123047 z M 42.958984 24 C 42.792034 24.0055 42.628965 24.055201 42.484375 24.144531 L 38.494141 26.605469 L 37 27.525391 L 37 28.525391 L 38.494141 27.605469 L 42.484375 25.144531 C 42.628965 25.055201 42.792034 25.0055 42.958984 25 C 43.527984 24.982 44 25.470125 44 26.078125 L 44 25.078125 C 44 24.470125 43.527984 23.982 42.958984 24 z M 7 28 C 5.8954 28 5 28.89543 5 30 C 5 30.173784 5.0286555 30.339243 5.0703125 30.5 C 5.2929516 29.638297 6.0687013 29 7 29 L 7 28 z M 14.589844 41 L 13.216797 42.484375 C 12.907225 42.819289 12.944832 43.196277 13.212891 43.490234 C 13.214644 43.48831 13.215021 43.486296 13.216797 43.484375 L 15.515625 41 L 14.589844 41 z M 28.484375 41 L 30.783203 43.484375 C 30.78386 43.485086 30.784502 43.485616 30.785156 43.486328 C 30.926613 43.330913 31.00944 43.151165 31 42.958984 C 30.992 42.791984 30.917203 42.629375 30.783203 42.484375 L 29.410156 41 L 28.484375 41 z "
     id="path4162" />
  <path
     style="fill:#000000;fill-opacity:1;opacity:0.3"
     d="M 4.0253906 13.482422 C 4.01652 13.655108 4 13.825108 4 14 C 4.0046665 16.682931 5.0949018 19.241197 7.0058594 21.115234 C 7.0125509 20.818118 7.0667692 20.536898 7.1640625 20.28125 C 5.2680877 18.50548 4.155034 16.064336 4.0253906 13.482422 z M 39.974609 13.492188 C 39.844222 16.071876 38.732219 18.512175 36.837891 20.287109 C 36.934687 20.543335 36.990329 20.825027 36.996094 21.123047 C 38.908354 19.247387 39.997083 16.684666 40 14 C 40 13.8284 39.983151 13.661666 39.974609 13.492188 z M 5.0703125 29.5 C 5.0286567 29.660757 5 29.826216 5 30 C 5 31.10457 5.89543 32 7 32 L 7 31 C 6.0693837 31 5.29359 30.360777 5.0703125 29.5 z M 37 31.472656 L 37 32.472656 L 38.494141 33.394531 L 42.484375 35.855469 C 43.158375 36.271469 44 35.750922 44 34.919922 L 44 33.919922 C 44 34.750922 43.158375 35.271469 42.484375 34.855469 L 38.494141 32.394531 L 37 31.472656 z M 7 36.830078 L 7 37.830078 C 7 39.033078 7.8216969 40 8.8417969 40 L 14.589844 40 L 15.515625 39 L 8.8417969 39 C 7.8216969 39 7 38.033078 7 36.830078 z M 37 36.830078 C 37 38.033078 36.178203 39 35.158203 39 L 28.484375 39 L 29.410156 40 L 35.158203 40 C 36.178203 40 37 39.033078 37 37.830078 L 37 36.830078 z M 30.783203 42.486328 C 30.5048 42.791168 29.98519 43 29.380859 43 L 22 43 L 14.619141 43 C 13.993154 43 13.484569 42.787206 13.212891 42.490234 C 12.59963 43.16326 13.376693 44 14.619141 44 L 22 44 L 29.380859 44 C 30.293859 44 31.028 43.528984 31 42.958984 C 30.992023 42.792471 30.91647 42.63101 30.783203 42.486328 z "
     id="path4167" />
</svg>
